svg/food/birthday_2_line.svg

<?xml version="1.0" encoding="UTF-8"?>
<svg width="24px" height="24px" viewBox="0 0 24 24" version="1.1" xmlns="http://www.w3.org/2000/svg" xmlns:xlink="http://www.w3.org/1999/xlink">
    <title>birthday_2_line</title>
    <g id="Icon" stroke="none" stroke-width="1" fill="none" fill-rule="evenodd">
        <g id="Food" transform="translate(-480.000000, -97.000000)">
            <g id="birthday_2_line" transform="translate(480.000000, 97.000000)">
                <path d="M24,0 L24,24 L0,24 L0,0 L24,0 Z M12.5935,23.2578 L12.5819,23.2595 L12.5109,23.295 L12.4919,23.2987 L12.4767,23.295 L12.4057,23.2595 C12.3958,23.2564 12.387,23.259 12.3821,23.2649 L12.378,23.2758 L12.3609,23.7031 L12.3659,23.7235 L12.3769,23.7357 L12.4805,23.8097 L12.4953,23.8136 L12.5071,23.8097 L12.6107,23.7357 L12.6233,23.7197 L12.6267,23.7031 L12.6096,23.2758 C12.6076,23.2657 12.601,23.2593 12.5935,23.2578 Z M12.8584,23.1453 L12.8445,23.1473 L12.6598,23.2397 L12.6499,23.2499 L12.6472,23.2611 L12.6651,23.6906 L12.6699,23.7034 L12.6784,23.7105 L12.8793,23.8032 C12.8914,23.8069 12.9022,23.803 12.9078,23.7952 L12.9118,23.7812 L12.8777,23.1665 C12.8753,23.1546 12.8674,23.147 12.8584,23.1453 Z M12.143,23.1473 C12.1332,23.1424 12.1222,23.1453 12.1156,23.1526 L12.1099,23.1665 L12.0758,23.7812 C12.0751,23.7927 12.0828,23.8019 12.0926,23.8046 L12.1083,23.8032 L12.3092,23.7105 L12.3186,23.7024 L12.3225,23.6906 L12.3404,23.2611 L12.3372,23.2485 L12.3278,23.2397 L12.143,23.1473 Z" id="MingCute" fill-rule="nonzero"></path>
                <path d="M18,9 C19.597725,9 20.903664,10.2488774 20.9949075,11.8237227 L21,12 L21,15 C21,15.6406214 20.6209571,16.1387138 20.1181206,16.3667325 L20,16.4145 L20,20 C20,21.0543909 19.18415,21.9181678 18.1492661,21.9945144 L18,22 L6,22 C4.94563773,22 4.08183483,21.18415 4.00548573,20.1492661 L4,20 L4,16.4145 C3.47961929,16.2287857 3.063415,15.7631867 3.00661225,15.1452476 L3,15 L3,12 C3,10.402275 4.24892392,9.09633597 5.82372764,9.00509252 L6,9 L18,9 Z M17.9333,15.7 C17.61335,15.45997 17.185346,15.435967 16.8437123,15.627991 L16.7333,15.7 L16.4667,15.9 C15.4561421,16.6578947 14.0865814,16.6977839 13.0383188,16.0196676 L12.8667,15.9 L12.6,15.7 C12.27996,15.45997 11.852028,15.435967 11.5104096,15.627991 L11.4,15.7 L11.1333,15.9 C10.1228368,16.6578947 8.75328116,16.6977839 7.70495927,16.0196676 L7.53333,15.9 L7.26667,15.7 C6.946666,15.45997 6.5186647,15.435967 6.17706853,15.627991 L6.06667,15.7 L6,15.75 L6,20 L18,20 L18,15.75 L17.9333,15.7 Z M18,11 L6,11 C5.44772,11 5,11.4477 5,12 L5,14.0055 C6.05308,13.3013 7.44379,13.3328 8.46667,14.1 L8.73333,14.3 C9.08889,14.5667 9.57778,14.5667 9.93333,14.3 L10.2,14.1 C11.2667,13.3 12.7333,13.3 13.8,14.1 L14.0667,14.3 C14.4222,14.5667 14.9111,14.5667 15.2667,14.3 L15.5333,14.1 C16.5562,13.3328 17.9469,13.3013 19,14.0055 L19,12 C19,11.4477 18.5523,11 18,11 Z M12.6,2.2 C12.7281,2.29624 12.8505,2.39979 12.971,2.50524 C13.1805,2.68858 13.4624,2.95252 13.7474,3.27314 C14.2705,3.86158 15,4.85497 15,5.9999975 C15,7.65685 13.6569,8.9999975 12,8.9999975 C10.3431,8.9999975 9,7.65685 9,5.9999975 C9,4.85497 9.72953,3.86158 10.2526,3.27314 C10.5376,2.95252 10.8195,2.68858 11.029,2.50524 C11.1495,2.39979 11.2719,2.29624 11.4,2.2 C11.7556,1.93333 12.2444,1.93333 12.6,2.2 Z M12,4.33398 C11.9176,4.41649 11.8323,4.50617 11.7474,4.60163 C11.2705,5.13819 11,5.6448 11,5.99977 C11,6.55205 11.4477,6.99977 12,6.99977 C12.5523,6.99977 13,6.55205 13,5.99977 C13,5.6448 12.7295,5.13819 12.2526,4.60163 C12.1677,4.50617 12.0824,4.41649 12,4.33398 Z" id="形状" fill="#09244B"></path>
            </g>
        </g>
    </g>
</svg>

<svg xmlns="http://www.w3.org/2000/svg" width="24" height="24"><g fill="none" fill-rule="evenodd"><path d="M24 0v24H0V0h24ZM12.594 23.258l-.012.002-.071.035-.02.004-.014-.004-.071-.036c-.01-.003-.019 0-.024.006l-.004.01-.017.428.005.02.01.013.104.074.015.004.012-.004.104-.074.012-.016.004-.017-.017-.427c-.002-.01-.009-.017-.016-.018Zm.264-.113-.014.002-.184.093-.01.01-.003.011.018.43.005.012.008.008.201.092c.012.004.023 0 .029-.008l.004-.014-.034-.614c-.003-.012-.01-.02-.02-.022Zm-.715.002a.023.023 0 0 0-.027.006l-.006.014-.034.614c0 .012.007.02.017.024l.015-.002.201-.093.01-.008.003-.011.018-.43-.003-.012-.01-.01-.184-.092Z"/><path fill="#09244B" d="M18 9a3 3 0 0 1 2.995 2.824L21 12v3c0 .64-.379 1.139-.882 1.367l-.118.047V20a2 2 0 0 1-1.85 1.995L18 22H6a2 2 0 0 1-1.995-1.85L4 20v-3.585a1.489 1.489 0 0 1-.993-1.27L3 15v-3a3 3 0 0 1 2.824-2.995L6 9h12Zm-.067 6.7a1 1 0 0 0-1.09-.072l-.11.072-.266.2a3 3 0 0 1-3.429.12l-.171-.12-.267-.2a1 1 0 0 0-1.09-.072l-.11.072-.267.2a3 3 0 0 1-3.428.12l-.172-.12-.266-.2a1 1 0 0 0-1.09-.072l-.11.072-.067.05V20h12v-4.25l-.067-.05ZM18 11H6a1 1 0 0 0-1 1v2.005a3 3 0 0 1 3.467.095l.266.2a1 1 0 0 0 1.2 0l.267-.2a3 3 0 0 1 3.6 0l.267.2a1 1 0 0 0 1.2 0l.266-.2A3 3 0 0 1 19 14.005V12a1 1 0 0 0-1-1Zm-5.4-8.8a8.843 8.843 0 0 1 1.147 1.073C14.271 3.862 15 4.855 15 6a3 3 0 1 1-6 0c0-1.145.73-2.138 1.253-2.727A8.843 8.843 0 0 1 11.4 2.2a1 1 0 0 1 1.2 0ZM12 4.334a6.384 6.384 0 0 0-.253.268C11.271 5.138 11 5.645 11 6a1 1 0 1 0 2 0c0-.355-.27-.862-.747-1.398A6.384 6.384 0 0 0 12 4.334Z"/></g></svg>
